icons/mail-volume-line.svg

<svg xmlns="http://www.w3.org/2000/svg" width="24" height="24" fill="none"><g clip-path="url(#a)"><g><path fill="#121212" d="M20 14.5V23.5L16.667 21H14V17H16.667L20 14.5ZM21 3C21.2652 3 21.5196 3.10536 21.7071 3.29289C21.8946 3.48043 22 3.73478 22 4V13H20V7.237L12.072 14.338L4 7.215V19H12V21H3C2.73478 21 2.48043 20.8946 2.29289 20.7071C2.10536 20.5196 2 20.2652 2 20V4C2 3.73478 2.10536 3.48043 2.29289 3.29289C2.48043 3.10536 2.73478 3 3 3H21ZM21 17C21.519 16.9977 22.0185 17.1972 22.3932 17.5564C22.7678 17.9156 22.9881 18.4063 23.0075 18.9249C23.027 19.4436 22.8441 19.9494 22.4975 20.3357C22.1509 20.722 21.6677 20.9584 21.15 20.995L21 21V17ZM19.5 5H4.511L12.061 11.662L19.5 5Z"/></g></g><defs><clipPath id="a"><rect width="24" height="24" fill="white"/></clipPath></defs></svg>

<svg width="24" height="24" fill="none" xmlns="http://www.w3.org/2000/svg"><g clip-path="url(#a)"><path d="M20 14.5v9L16.667 21H14v-4h2.667L20 14.5ZM21 3a1 1 0 0 1 1 1v9h-2V7.237l-7.928 7.101L4 7.215V19h8v2H3a1 1 0 0 1-1-1V4a1 1 0 0 1 1-1h18Zm0 14a2 2 0 0 1 .15 3.995L21 21v-4ZM19.5 5H4.511l7.55 6.662L19.5 5Z" /></g><defs><clipPath id="a"><path fill="#fff" d="M0 0h24v24H0z"/></clipPath></defs></svg>
